X: 5
T:Dennis Murphy's
M:2/4
L:1/8
S:Pog Band Circassian Circle Set
R:polka
D:Planxty
Z:id:hn-polka-10
K:D
"D"f/g/f/e/ d>B|"Bm"AD FA|"Em"GE e>d|"A"cB BA|
"D"f/g/f/e/ d>B|"Bm"AD FA|"Em"GE "A"e>f|1"D" ed de:|2"D" ed d>B||
|:"D"Af f/e/f|"G"Ag g/f/g|"D"Af f/e/d|"A"e/f/e/d/ BA|"D"
Af f/e/f|"G"Ag g>a|"D"b>a "A"gc|1"D" ed d>B:|2"D" ed de||
% Output from ABC2Win  Version 2.1 i on 22/03/2005
